X:258
T: Rumpel nit!
N: A0303A
O: Europa, Mitteleuropa, Deutschland
N: 68 Lieder Nuernberg bei Berg und Newber 1542 No. 35
R: Romanze, Ballade, Lied
M: 6/2
L: 1/2
K: G
G2GG2G | d2dd3
d2dc2d | _B2AG3
B2Bc2A | =F2GA3
G2GG2G | =F2ED2
D | =F2GA2G | =F2GA2
d | _B2AG2F | G6

